!!!COM: Bach, Johann Sebastian
!!!OPR: Joh. Seb. Bachs vierstimmige Choralgesänge
!!!XEN: Four-part Chorales
!!!OTL: 77. Herr, ich habe missgehandelt
!!!SCT: BWV 330
!!!SCA: Thematisch-systematisches Verzeichnis der musikalischen Werke Johann Sebastian Bach: Bach-Werke-Verzeichnis (Schmieder)
!!!YOR: Bach Gesellschaft Edition xxxix
!!!ENC: Steven Rasmussen
!!!CDT: 1685/3//-1750/7/28/
!!!OCY: Deutschland
!!!YEC: Copyright (c) 1994, 2000 Center for Computer Assisted Research in the Humanities
!!!YEM: Rights to all derivative editions reserved
!!!YEN: United States of America
**kern	**silbe	**kern	**silbe	**kern	**kern	**silbe
*I:[SOPRANO]	*I:[SOPRANO]	*I:[ALTO]	*I:[ALTO]	*I:[TENORE]	*I:[BASSO]	*I:[BASSO]
*>[A,A,B]	*	*>[A,A,B]	*	*>[A,A,B]	*>[A,A,B]	*
*>A	*	*>A	*	*>A	*>A	*
*clefG2	*	*clefG2	*	*clefGv2	*clefF4	*
*k[]	*	*k[]	*	*k[]	*k[]	*
*a:	*	*a:	*	*a:	*a:	*
*M4/4	*	*M4/4	*	*M4/4	*M4/4	*
=1-	=1-	=1-	=1-	=1-	=1-	=1-
4a	Herr,ich	8eL	.	8cL	8AAL	.
.	.	8dJ	.	8BJ	8BBJ	.
8eL	ichbin	4c	.	4A	8CL	.
8f#J	.	.	.	.	8DJ	.
4g#	ha-nicht	4B	.	8EL	4E	.
.	.	.	.	8eJ	.	.
4a	-beden	4A	.	8dL	4F#	.
.	.	.	.	8cJ	.	.
=2	=2	=2	=2	=2	=2	=2
8bL	miss-Weg	4e	.	8BL	8G#L	.
16ccL	.	.	.	8G#J	8EJ	.
16ddJJ	.	.	.	.	.	.
8ccL	-ge-ge-	8eL	.	4A	8AL	.
8bJ	.	8fJ	.	.	8DJ	.
4b	-han--wan-	4e	.	8AL	8EL	.
.	.	.	.	8G#J	8EEJ	.
4a;	-delt,-delt,	4e;	.	4c;	4AA;	.
=3	=3	=3	=3	=3	=3	=3
4cc	jaden	8aL	.	4e	(8AA	.
.	.	8gJ	.	.	4A)	.
4b	michdu	8fL	.	4d	.	.
.	.	8eJ	.	.	8G#	.
4a	drÃ¼cktmir	(8e	.	4c	8AL	.
.	.	4a)	.	.	8FJ	.
4b	derge-	.	.	8FL	8DL	.
.	.	8g#	.	8EJ	8EJ	.
=4	=4	=4	=4	=4	=4	=4
4cc	SÃ¼n--zei-	8aL	.	(8E	8AAL	.
.	.	8eJ	.	4A)	8GGJ	.
4dd	-den-get	8aL	.	.	4FF	.
.	.	16bL	.	16G#LL	.	.
.	.	16aJJ	.	16AJJ	.	.
2ee;	Last;hast;	2g#;	.	2B;	2EE;	.
=5:|!	=5:|!	=5:|!	=5:|!	=5:|!	=5:|!	=5:|!
*>B	*	*>B	*	*>B	*>B	*
4ee	und	4a	.	4c	8AAL	.
.	.	.	.	.	8AJ	.
4ff	jetzt	4a	.	4d	8GL	.
.	.	.	.	.	8FJ	.
4gg	wollt'	4g	.	8dL	4E	.
.	.	.	.	8cJ	.	.
4cc	ich	8aL	.	4c	8FL	.
.	.	8gJ	.	.	8EJ	.
=6	=6	=6	=6	=6	=6	=6
4ff	gern	8a	gern	8c	4D	gern
.	.	8dd	aus	8B	.	.
4ee	aus	[4.g	Schre-	(4.c	8EL	aus
.	.	.	.	.	8FJ	.
4dd	Schre-	.	.	.	8GL	Schre-
.	.	16gLL]	.	8B)	8GGJ	.
.	.	16fJJ	.	.	.	.
4cc;	-cken	4e;	-cken	4G;	4C;	-cken
=7	=7	=7	=7	=7	=7	=7
4dd	mich	8gL	.	8BL	8GL	.
.	.	8aJ	.	8dJ	8FJ	.
4dd	vor	4b	.	8gL	8EL	.
.	.	.	.	8fJ	8DJ	.
4ee	dei-	8bL	.	4.e	8CL	.
.	.	8g#J	.	.	8DJ	.
4a	-nem	8aL	.	.	8CL	.
.	.	8gnJ	.	8d	8BBJ	.
=8	=8	=8	=8	=8	=8	=8
4dd	Zorn	8fL	.	8cL	8AAL	.
.	.	8eJ	.	8BJ	8GG#J	.
8ccL	ver-	8eL	.	4A	8AAL	.
8bJ	.	8fJ	.	.	8DJ	.
2b	-ste-	4.e	.	4A	4E	.
.	.	.	.	4G#	4EE	.
.	.	8d	.	.	.	.
=9	=9	=9	=9	=9	=9	=9
2a;	-cken.	2c#;	.	2E;	2AA;	.
2r	.	2r	.	2r	2r	.
==|!	==|!	==|!	==|!	==|!	==|!	==|!
*-	*-	*-	*-	*-	*-	*-
!!!RWG: Key is interpreted using the Humdrum key tool.
!!!END: 1994/06/08
!!!EMD: Converted from MuseData to Humdrum Dec 19, 2000, by Andreas Kornstaedt using muse2kern.
!!!EED: Craig Stuart Sapp
!!!EEV: 2024/03/31
!!!ONB: Some non-unicode characters
